X: 07056
T: HOWE'S REEL #1
C: Bob McQuillen 8 Apr 89
B: Bob's Note Book 7 #56
%R: reel
Z: 2020 John Chambers <jc:trillian.mit.edu>
M: C
L: 1/8
K: D
FE \
| DFBF ABde | fafd edBA | BGBd AFDF | GEFD EDB,A, |
| DFBF ABde | fafd edBA | Bdce dBAF | EDEF D2 :|
|: FA \
| d2dB AFAB | defd edBA | fedA BAFA | dAFD E2FA |
| d2dB AFAB | defd edfe | dBAF BAFD | EDB,A, D2 :|
%%begintext align
%% Last October, New England
%% Tradition went to the Big Apple with caller David
%% Millstone. We played for a dance in the Metropolitan
%% Duane Church, corner of 13th St. and 7th Ave. Afterwards, we
%% went to Steve Howe's house and spent a real nice comfortable
%% night. It sure was good of you to put us up, Steve. Thanks loads!
%%endtext

%%sep 1 1 500

%%sep 1 1 500

